src/assets/images/mobile-blocker.svg

<svg width="252" height="148" viewBox="0 0 252 148" fill="none" xmlns="http://www.w3.org/2000/svg">
<g clip-path="url(#clip0)">
<path d="M81.3817 121.426C84.2255 121.426 86.5309 119.121 86.5309 116.277C86.5309 113.433 84.2255 111.128 81.3817 111.128C78.5379 111.128 76.2325 113.433 76.2325 116.277C76.2325 119.121 78.5379 121.426 81.3817 121.426Z" fill="#607D88"/>
<path d="M139.172 121.426C142.016 121.426 144.321 119.121 144.321 116.277C144.321 113.433 142.016 111.128 139.172 111.128C136.328 111.128 134.023 113.433 134.023 116.277C134.023 119.121 136.328 121.426 139.172 121.426Z" fill="#607D88"/>
<path d="M60.0224 130.487C60.0224 139.791 52.4533 147.36 43.1494 147.36H38.9284C29.6245 147.36 22.0554 139.791 22.0554 130.487C22.0554 123.57 27.6908 117.934 34.6079 117.934H47.4809C54.387 117.934 60.0224 123.57 60.0224 130.487ZM34.5969 124.564C31.3261 124.564 28.6742 127.216 28.6742 130.487C28.6742 136.133 33.2709 140.73 38.9173 140.73H43.1384C48.7848 140.73 53.3815 136.133 53.3815 130.487C53.3815 127.216 50.7296 124.564 47.4588 124.564H34.5969Z" fill="#607D88"/>
<path d="M200.355 130.487C200.355 139.791 192.786 147.36 183.482 147.36H179.261C169.957 147.36 162.388 139.791 162.388 130.487C162.388 123.57 168.023 117.934 174.94 117.934H187.813C194.719 117.934 200.355 123.57 200.355 130.487ZM174.929 124.564C171.658 124.564 169.007 127.216 169.007 130.487C169.007 136.133 173.603 140.73 179.25 140.73H183.471C189.117 140.73 193.714 136.133 193.714 130.487C193.714 127.216 191.062 124.564 187.791 124.564H174.929Z" fill="#607D88"/>
<path opacity="0.3" d="M43.2931 133.493H39.0168C34.8289 133.493 31.2157 131.017 29.5803 127.47C28.9946 128.388 28.6521 129.459 28.6521 130.609C28.6521 136.255 33.3041 140.852 39.0168 140.852H43.2931C49.0058 140.852 53.6578 136.255 53.6578 130.609C53.6578 129.448 53.3042 128.376 52.7296 127.47C51.0942 131.017 47.492 133.493 43.2931 133.493Z" fill="url(#paint0_radial)"/>
<path opacity="0.3" d="M183.625 133.493H179.349C175.161 133.493 171.548 131.017 169.913 127.47C169.327 128.388 168.973 129.459 168.973 130.609C168.973 136.255 173.625 140.852 179.338 140.852H183.614C189.327 140.852 193.979 136.255 193.979 130.609C193.979 129.448 193.625 128.376 193.04 127.47C191.427 131.017 187.824 133.493 183.625 133.493Z" fill="url(#paint1_radial)"/>
<path opacity="0.3" d="M109.824 56.3318C105.072 72.6303 73.238 84.0116 55.8014 83.3154C53.0169 85.6359 50.2544 92.3541 49.2379 94.3984C63.7462 94.8514 113.901 93.7685 126.001 58.0556C124.1 57.6247 113.956 56.0114 109.824 56.3318Z" fill="url(#paint2_radial)"/>
<path opacity="0.3" d="M237.46 16.8509C247.084 29.0057 244.421 61.9672 208.454 59.1274L208.333 59.1164L208.211 59.1053C205.979 58.9506 203.791 58.5528 201.681 57.934L201.559 57.9009L201.438 57.8677C197.769 56.9285 194.322 55.3705 190.974 53.1163C191.04 53.2047 191.095 53.2931 191.161 53.3815C191.371 53.6025 191.57 53.8235 191.758 54.0224C192.123 54.4202 192.454 54.7738 192.719 55.0611C193.25 55.6357 193.548 55.9672 193.548 55.9672L193.802 56.2434C195.051 57.6025 194.951 59.7131 193.592 60.9617C192.233 62.2103 190.123 62.1109 188.874 60.7517C188.819 60.6854 188.753 60.6191 188.708 60.5528C188.708 60.5528 188.377 60.1219 187.78 59.3705C187.625 59.1716 187.46 58.9617 187.283 58.7186C186.719 61.6689 185.603 64.4203 183.891 67.0501C190.432 68.5418 195.438 68.8402 202.521 68.8402C215.99 68.8402 225.195 66.2766 232.355 60.5307L232.454 60.4534L232.554 60.376C234.311 59.0722 235.946 57.5473 237.405 55.8567L237.482 55.7572L237.571 55.6688C237.604 55.6357 237.626 55.6025 237.659 55.5694L237.913 55.26C242.278 49.934 244.676 43.2157 244.676 36.3206C244.676 28.8841 241.957 22.0885 237.46 16.8509Z" fill="url(#paint3_radial)"/>
<path d="M251.217 36.398C251.217 16.2984 234.93 0 214.83 0C194.73 0 178.432 16.2984 178.432 36.398C178.432 40.7848 179.206 44.9947 180.631 48.8843C181.062 50.4975 181.294 52.1882 181.294 53.9451C181.294 58.9175 179.614 62.4534 176.587 65.923C176.587 65.923 175.636 67.1606 175.636 68.5308C175.636 70.4424 176.962 72.0336 178.752 72.4535C188.145 74.9949 194.277 75.3706 202.653 75.3706C215.637 75.3706 227.084 73.1828 236.488 65.6468C238.653 64.0446 240.631 62.1993 242.388 60.1661C242.609 59.9341 242.83 59.702 243.051 59.47L243.007 59.4479C248.134 53.1605 251.217 45.1384 251.217 36.398ZM237.869 55.2379L237.615 55.5473C237.582 55.5804 237.559 55.6136 237.526 55.6467L237.438 55.7351L237.361 55.8346C235.913 57.5142 234.289 59.028 232.532 60.3319L232.432 60.4092L232.333 60.4866C225.206 66.1993 216.045 68.7518 202.653 68.7518C195.603 68.7518 190.62 68.4645 184.112 66.9728C185.824 64.354 186.929 61.6136 187.482 58.6854C187.659 58.9175 187.835 59.1385 187.979 59.3263C188.565 60.0777 188.896 60.5087 188.896 60.5087C188.951 60.5749 189.007 60.6412 189.062 60.7075C190.299 62.0556 192.399 62.1551 193.747 60.9175C195.095 59.6799 195.195 57.5805 193.957 56.2324L193.703 55.9561C193.703 55.9561 193.404 55.6246 192.885 55.0611C192.62 54.7738 192.299 54.4313 191.935 54.0335C191.747 53.8346 191.548 53.6246 191.349 53.4036C191.161 53.1605 190.985 52.8953 190.786 52.6302C190.399 52.0887 189.968 51.492 189.526 50.8732C189.416 50.7185 189.294 50.5638 189.183 50.3981C189.095 50.2323 189.007 50.0666 188.918 49.9009C188.73 49.5583 188.543 49.2158 188.355 48.8732C187.979 48.1439 187.515 47.5362 187.195 46.5528C186.841 45.6467 186.487 44.7295 186.134 43.8014L186.067 43.6246L186.045 43.5583L185.979 43.282L185.813 42.619C185.703 42.177 185.592 41.7461 185.482 41.3041C185.471 41.2489 185.46 41.1936 185.438 41.1494C185.194 39.5914 185.051 38.0113 185.051 36.4201C185.062 19.978 198.41 6.62987 214.83 6.62987C231.239 6.62987 244.598 19.978 244.598 36.398C244.587 43.2489 242.2 49.9451 237.869 55.2379Z" fill="#607D88"/>
<path d="M165.581 135.68C164.244 133.78 164.211 131.006 165.46 129.051H56.4534C57.6026 131.073 57.4589 133.857 56.0114 135.68H165.581Z" fill="#607D88"/>
<path d="M219.659 129.051H197.736C198.797 131.139 198.543 133.934 196.974 135.68H219.659C221.493 135.68 222.974 134.2 222.974 132.365C222.974 130.531 221.493 129.051 219.659 129.051Z" fill="#607D88"/>
<path d="M26.0996 129.051H3.31494C1.48067 129.051 0 130.531 0 132.365C0 134.2 1.48067 135.68 3.31494 135.68H27.746C25.8013 134.167 25.2488 131.316 26.0996 129.051Z" fill="#607D88"/>
<path d="M110.575 49.6799C70.3319 49.6799 37.3814 81.4922 35.5251 121.282C36.3207 120.752 37.3262 120.432 38.5417 120.432C40.0776 120.432 41.271 120.94 42.1439 121.747C42.4643 114.454 43.9561 107.47 46.387 100.94C47.945 101.039 50.4975 101.15 53.7683 101.15C60.9727 101.15 71.68 100.608 83.0281 98.1332C108.929 92.4757 125.934 79.2822 132.354 59.8899C158.277 68.6192 177.316 92.4425 178.94 120.874C179.228 120.829 179.515 120.785 179.813 120.785C180.918 120.796 182.034 120.852 183.139 120.984C183.415 120.94 183.681 120.907 183.957 120.863C184.52 120.774 185.062 120.719 185.592 120.719C183.471 81.1828 150.631 49.6799 110.575 49.6799ZM49.2158 94.4204C60.4313 71.8568 83.7132 56.3097 110.575 56.3097C115.868 56.3097 121.028 56.9285 125.979 58.0777C113.879 93.7906 63.7241 94.8735 49.2158 94.4204Z" fill="#607D88"/>
<path d="M223.813 41.3041C223.813 36.2986 219.758 17.5802 214.753 17.5802C209.747 17.5802 205.692 36.2986 205.692 41.3041C205.692 46.3097 209.747 50.365 214.753 50.365C219.758 50.365 223.813 46.3097 223.813 41.3041Z" stroke="#607D88" stroke-width="6" stroke-miterlimit="10"/>
<path opacity="0.3" d="M219.847 36.1549C219.891 36.6411 219.924 37.072 219.924 37.4035C219.924 40.9616 217.062 43.8566 213.526 43.8566C211.791 43.8566 210.222 43.1605 209.073 42.0334C209.46 44.8732 211.869 47.061 214.797 47.061C217.99 47.061 220.576 44.4533 220.576 41.2378C220.576 40.1991 220.311 38.2875 219.847 36.1549Z" fill="#607D88"/>
</g>
<defs>
<radialGradient id="paint0_radial" cx="0" cy="0" r="1" gradientUnits="userSpaceOnUse" gradientTransform="translate(57.4316 128.176) scale(70.0963)">
<stop stop-color="#607D88"/>
<stop offset="0.1773" stop-color="#607D88" stop-opacity="0.8227"/>
<stop offset="0.3654" stop-color="#607D88" stop-opacity="0.6346"/>
<stop offset="0.5587" stop-color="#607D88" stop-opacity="0.4413"/>
<stop offset="0.7553" stop-color="#607D88" stop-opacity="0.2447"/>
<stop offset="0.9528" stop-color="#F5FBFE" stop-opacity="0.0472"/>
<stop offset="1" stop-color="white" stop-opacity="0"/>
</radialGradient>
<radialGradient id="paint1_radial" cx="0" cy="0" r="1" gradientUnits="userSpaceOnUse" gradientTransform="translate(197.753 128.176) scale(70.0963)">
<stop stop-color="#607D88"/>
<stop offset="0.1773" stop-color="#607D88" stop-opacity="0.8227"/>
<stop offset="0.3654" stop-color="#607D88" stop-opacity="0.6346"/>
<stop offset="0.5587" stop-color="#607D88" stop-opacity="0.4413"/>
<stop offset="0.7553" stop-color="#607D88" stop-opacity="0.2447"/>
<stop offset="0.9528" stop-color="#F5FBFE" stop-opacity="0.0472"/>
<stop offset="1" stop-color="white" stop-opacity="0"/>
</radialGradient>
<radialGradient id="paint2_radial" cx="0" cy="0" r="1" gradientUnits="userSpaceOnUse" gradientTransform="translate(125.065 49.3869) scale(121.287)">
<stop stop-color="#607D88"/>
<stop offset="1" stop-color="white" stop-opacity="0"/>
</radialGradient>
<radialGradient id="paint3_radial" cx="0" cy="0" r="1" gradientUnits="userSpaceOnUse" gradientTransform="translate(243.934 7.44875) scale(96.0416 165.196)">
<stop stop-color="#607D88"/>
<stop offset="1" stop-color="white" stop-opacity="0"/>
</radialGradient>
<clipPath id="clip0">
<rect width="251.217" height="147.36" fill="white"/>
</clipPath>
</defs>
</svg>

<svg width="252" height="148" viewBox="0 0 252 148" fill="none" xmlns="http://www.w3.org/2000/svg"><g clip-path="url(#clip0)"><path d="M81.382 121.426a5.149 5.149 0 100-10.298 5.149 5.149 0 000 10.298zM139.172 121.426a5.149 5.149 0 100-10.297 5.149 5.149 0 000 10.297zM60.022 130.487c0 9.304-7.569 16.873-16.873 16.873h-4.22c-9.305 0-16.874-7.569-16.874-16.873 0-6.917 5.636-12.553 12.553-12.553H47.48c6.906 0 12.541 5.636 12.541 12.553zm-25.425-5.923a5.923 5.923 0 00-5.923 5.923c0 5.646 4.597 10.243 10.243 10.243h4.221c5.647 0 10.244-4.597 10.244-10.243a5.923 5.923 0 00-5.923-5.923H34.597zM200.355 130.487c0 9.304-7.569 16.873-16.873 16.873h-4.221c-9.304 0-16.873-7.569-16.873-16.873 0-6.917 5.635-12.553 12.552-12.553h12.873c6.906 0 12.542 5.636 12.542 12.553zm-25.426-5.923a5.922 5.922 0 00-5.922 5.923c0 5.646 4.596 10.243 10.243 10.243h4.221c5.646 0 10.243-4.597 10.243-10.243a5.923 5.923 0 00-5.923-5.923h-12.862z" fill="#607D88"/><path opacity=".3" d="M43.293 133.493h-4.276a10.39 10.39 0 01-9.437-6.023 5.81 5.81 0 00-.928 3.139c0 5.646 4.652 10.243 10.365 10.243h4.276c5.713 0 10.365-4.597 10.365-10.243a5.845 5.845 0 00-.928-3.139 10.378 10.378 0 01-9.437 6.023z" fill="url(#paint0_radial)"/><path opacity=".3" d="M183.625 133.493h-4.276a10.39 10.39 0 01-9.436-6.023 5.817 5.817 0 00-.94 3.139c0 5.646 4.652 10.243 10.365 10.243h4.276c5.713 0 10.365-4.597 10.365-10.243a5.765 5.765 0 00-.939-3.139 10.323 10.323 0 01-9.415 6.023z" fill="url(#paint1_radial)"/><path opacity=".3" d="M109.824 56.332c-4.752 16.298-36.586 27.68-54.023 26.983-2.784 2.32-5.547 9.04-6.563 11.083 14.508.453 64.663-.63 76.763-36.342-1.901-.431-12.045-2.045-16.177-1.724z" fill="url(#paint2_radial)"/><path opacity=".3" d="M237.46 16.85c9.624 12.156 6.961 45.117-29.006 42.277l-.121-.01-.122-.012a30.76 30.76 0 01-6.53-1.171l-.122-.033-.121-.033c-3.669-.94-7.116-2.498-10.464-4.752.066.089.121.177.187.266.21.22.409.442.597.64.365.398.696.752.961 1.04.531.574.829.905.829.905l.254.276a3.338 3.338 0 01-.21 4.719 3.338 3.338 0 01-4.718-.21c-.055-.067-.121-.133-.166-.2 0 0-.331-.43-.928-1.181-.155-.2-.32-.41-.497-.652-.564 2.95-1.68 5.701-3.392 8.331 6.541 1.492 11.547 1.79 18.63 1.79 13.469 0 22.674-2.563 29.834-8.31l.099-.077.1-.077a30.23 30.23 0 004.851-4.52l.077-.099.089-.088c.033-.033.055-.066.088-.1l.254-.309a29.934 29.934 0 006.763-18.94c0-7.436-2.719-14.232-7.216-19.47z" fill="url(#paint3_radial)"/><path d="M251.217 36.398C251.217 16.298 234.93 0 214.83 0s-36.398 16.298-36.398 36.398c0 4.387.774 8.597 2.199 12.486a19.55 19.55 0 01.663 5.061c0 4.972-1.68 8.508-4.707 11.978 0 0-.951 1.238-.951 2.608a4.028 4.028 0 003.116 3.922c9.393 2.542 15.525 2.918 23.901 2.918 12.984 0 24.431-2.188 33.835-9.724a36.535 36.535 0 005.9-5.48l.663-.697-.044-.022c5.127-6.288 8.21-14.31 8.21-23.05zm-13.348 18.84l-.254.31c-.033.032-.056.066-.089.099l-.088.088-.077.1a29.986 29.986 0 01-4.829 4.497l-.1.077-.099.078c-7.127 5.712-16.288 8.265-29.68 8.265-7.05 0-12.033-.287-18.541-1.78 1.712-2.618 2.817-5.358 3.37-8.287.177.232.353.453.497.641.586.752.917 1.183.917 1.183l.166.199a3.318 3.318 0 004.685.21 3.318 3.318 0 00.21-4.686l-.254-.276s-.299-.331-.818-.895c-.265-.287-.586-.63-.95-1.028-.188-.198-.387-.408-.586-.63-.188-.242-.364-.508-.563-.773-.387-.541-.818-1.138-1.26-1.757-.11-.154-.232-.31-.343-.475l-.265-.497-.563-1.028c-.376-.73-.84-1.337-1.16-2.32-.354-.906-.708-1.823-1.061-2.752l-.067-.176-.022-.067-.066-.276-.166-.663c-.11-.442-.221-.873-.331-1.315-.011-.055-.022-.11-.044-.155a30.569 30.569 0 01-.387-4.729c.011-16.442 13.359-29.79 29.779-29.79 16.409 0 29.768 13.348 29.768 29.768a29.91 29.91 0 01-6.729 18.84zM165.581 135.68c-1.337-1.9-1.37-4.674-.121-6.629H56.453c1.15 2.022 1.006 4.806-.442 6.629h109.57zM219.659 129.051h-21.923c1.061 2.088.807 4.883-.762 6.629h22.685a3.31 3.31 0 003.315-3.315 3.31 3.31 0 00-3.315-3.314zM26.1 129.051H3.315A3.31 3.31 0 000 132.365a3.31 3.31 0 003.315 3.315h24.431c-1.945-1.513-2.497-4.364-1.646-6.629zM110.575 49.68c-40.243 0-73.194 31.812-75.05 71.602.796-.53 1.801-.85 3.017-.85 1.536 0 2.729.508 3.602 1.315a68.103 68.103 0 014.243-20.807c1.558.099 4.11.21 7.381.21 7.205 0 17.912-.542 29.26-3.017 25.901-5.657 42.906-18.85 49.326-38.243 25.923 8.73 44.962 32.552 46.586 60.984.288-.045.575-.089.873-.089a30.66 30.66 0 013.326.199c.276-.044.542-.077.818-.121a10.483 10.483 0 011.635-.144c-2.121-39.536-34.961-71.04-75.017-71.04zm-61.36 44.74c11.216-22.563 34.498-38.11 61.36-38.11 5.293 0 10.453.618 15.404 1.768-12.1 35.713-62.255 36.796-76.763 36.342z" fill="#607D88"/><path d="M223.813 41.304c0-5.005-4.055-23.724-9.06-23.724-5.006 0-9.061 18.719-9.061 23.724a9.059 9.059 0 009.061 9.061 9.059 9.059 0 009.06-9.06z" stroke="#607D88" stroke-width="6" stroke-miterlimit="10"/><path opacity=".3" d="M219.847 36.155c.044.486.077.917.077 1.248 0 3.559-2.862 6.454-6.398 6.454a6.336 6.336 0 01-4.453-1.824c.387 2.84 2.796 5.028 5.724 5.028 3.193 0 5.779-2.608 5.779-5.823 0-1.039-.265-2.95-.729-5.083z" fill="#607D88"/></g><defs><radialGradient id="paint0_radial" cx="0" cy="0" r="1" gradientUnits="userSpaceOnUse" gradientTransform="translate(57.432 128.176) scale(70.0963)"><stop stop-color="#607D88"/><stop offset=".177" stop-color="#607D88" stop-opacity=".823"/><stop offset=".365" stop-color="#607D88" stop-opacity=".635"/><stop offset=".559" stop-color="#607D88" stop-opacity=".441"/><stop offset=".755" stop-color="#607D88" stop-opacity=".245"/><stop offset=".953" stop-color="#F5FBFE" stop-opacity=".047"/><stop offset="1" stop-color="#fff" stop-opacity="0"/></radialGradient><radialGradient id="paint1_radial" cx="0" cy="0" r="1" gradientUnits="userSpaceOnUse" gradientTransform="translate(197.753 128.176) scale(70.0963)"><stop stop-color="#607D88"/><stop offset=".177" stop-color="#607D88" stop-opacity=".823"/><stop offset=".365" stop-color="#607D88" stop-opacity=".635"/><stop offset=".559" stop-color="#607D88" stop-opacity=".441"/><stop offset=".755" stop-color="#607D88" stop-opacity=".245"/><stop offset=".953" stop-color="#F5FBFE" stop-opacity=".047"/><stop offset="1" stop-color="#fff" stop-opacity="0"/></radialGradient><radialGradient id="paint2_radial" cx="0" cy="0" r="1" gradientUnits="userSpaceOnUse" gradientTransform="translate(125.065 49.387) scale(121.287)"><stop stop-color="#607D88"/><stop offset="1" stop-color="#fff" stop-opacity="0"/></radialGradient><radialGradient id="paint3_radial" cx="0" cy="0" r="1" gradientUnits="userSpaceOnUse" gradientTransform="matrix(96.0416 0 0 165.196 243.934 7.449)"><stop stop-color="#607D88"/><stop offset="1" stop-color="#fff" stop-opacity="0"/></radialGradient><clipPath id="clip0"><path fill="#fff" d="M0 0h251.217v147.36H0z"/></clipPath></defs></svg>
